packages/icons/src/svg/Idea.svg

<svg width="20" height="20" viewBox="0 0 20 20" fill="none" xmlns="http://www.w3.org/2000/svg">
<path fill-rule="evenodd" clip-rule="evenodd" d="M10.0966 1.25C10.5108 1.25 10.8466 1.58579 10.8466 2V3.93429C10.8466 4.3485 10.5108 4.68429 10.0966 4.68429C9.68234 4.68429 9.34655 4.3485 9.34655 3.93429V2C9.34655 1.58579 9.68234 1.25 10.0966 1.25ZM4.41168 3.31029C4.70594 3.01877 5.18081 3.021 5.47233 3.31526L6.8391 4.69491C7.13062 4.98917 7.12839 5.46404 6.83413 5.75555C6.53986 6.04707 6.065 6.04484 5.77348 5.75058L4.40671 4.37094C4.11519 4.07668 4.11742 3.60181 4.41168 3.31029ZM15.7814 3.31029C16.0757 3.60181 16.0779 4.07668 15.7864 4.37094L14.4196 5.75058C14.1281 6.04484 13.6532 6.04707 13.359 5.75555C13.0647 5.46404 13.0625 4.98917 13.354 4.69491L14.7208 3.31526C15.0123 3.021 15.4872 3.01877 15.7814 3.31029ZM9.98612 5.98973C10.9246 5.97022 11.8512 6.20205 12.67 6.66119C13.4887 7.12033 14.1698 7.79007 14.6425 8.60101C15.1153 9.41195 15.3626 10.3346 15.3588 11.2733L14.6088 11.2702L15.3588 11.2796C15.3466 12.2472 15.068 13.1926 14.5535 14.0122C14.5085 14.0839 14.4618 14.1544 14.4136 14.2236C14.3663 14.2914 14.3193 14.3585 14.2727 14.4251C13.9164 14.9342 13.5825 15.4113 13.3202 15.9088C13.0286 16.4622 12.8581 16.9843 12.8581 17.5097H12.1081L12.8578 17.5305C12.8488 17.8566 12.713 18.1664 12.4794 18.3941C12.2457 18.6218 11.9325 18.7494 11.6062 18.75L11.6049 18.75H8.58817L8.58682 18.75C8.2604 18.7494 7.9471 18.6215 7.71357 18.3934C7.48003 18.1654 7.34469 17.8552 7.33634 17.5289L8.08607 17.5097H7.33609C7.33609 16.9962 7.17 16.4857 6.88413 15.9454C6.61641 15.4394 6.27013 14.9534 5.90041 14.4346C5.86928 14.3909 5.83799 14.347 5.80656 14.3028C5.76514 14.2445 5.72485 14.1854 5.68573 14.1254C5.17327 13.3389 4.88046 12.4297 4.83765 11.492C4.79484 10.5543 5.00359 9.62216 5.44225 8.79228C5.88092 7.96239 6.53355 7.26492 7.33249 6.77215C8.13144 6.27938 9.04763 6.00924 9.98612 5.98973ZM8.82747 17.25H11.3666C11.4159 16.4969 11.6738 15.8155 11.9933 15.2094C12.3029 14.622 12.695 14.0625 13.0453 13.5627C13.0921 13.496 13.1381 13.4303 13.1831 13.3658C13.2176 13.3163 13.2509 13.2659 13.2831 13.2146C13.6504 12.6296 13.8496 11.9547 13.8588 11.2641C13.861 10.594 13.6842 9.93543 13.3467 9.3565C13.0086 8.77667 12.5217 8.2978 11.9363 7.96951C11.3509 7.64121 10.6883 7.47545 10.0173 7.4894C9.34627 7.50335 8.69118 7.69651 8.11993 8.04884C7.54867 8.40118 7.08204 8.89988 6.76839 9.49326C6.45474 10.0866 6.30548 10.7531 6.33609 11.4236C6.3667 12.094 6.57606 12.7441 6.94248 13.3065C6.97045 13.3494 6.99926 13.3917 7.02888 13.4333C7.06219 13.4802 7.09602 13.5276 7.13027 13.5756C7.48913 14.0786 7.89308 14.6449 8.20999 15.2439C8.5251 15.8395 8.77836 16.5094 8.82747 17.25ZM1.25 7.84042C1.25 7.4262 1.58579 7.09042 2 7.09042H3.93429C4.3485 7.09042 4.68429 7.4262 4.68429 7.84042C4.68429 8.25463 4.3485 8.59042 3.93429 8.59042H2C1.58579 8.59042 1.25 8.25463 1.25 7.84042ZM15.5088 7.84042C15.5088 7.4262 15.8446 7.09042 16.2588 7.09042H18.1931C18.6073 7.09042 18.9431 7.4262 18.9431 7.84042C18.9431 8.25463 18.6073 8.59042 18.1931 8.59042H16.2588C15.8446 8.59042 15.5088 8.25463 15.5088 7.84042Z" fill="currentColor"/>
</svg>

<svg xmlns="http://www.w3.org/2000/svg" width="20" height="20" fill="none" viewBox="0 0 20 20">
  <path fill="currentColor" d="M10.097 1.25a.75.75 0 0 1 .75.75v1.934a.75.75 0 0 1-1.5 0V2a.75.75 0 0 1 .75-.75ZM4.412 3.31a.75.75 0 0 1 1.06.005l1.367 1.38A.75.75 0 1 1 5.773 5.75L4.407 4.37a.75.75 0 0 1 .005-1.06Zm11.369 0a.75.75 0 0 1 .005 1.06L14.42 5.75a.75.75 0 1 1-1.066-1.055l1.367-1.38a.75.75 0 0 1 1.06-.005Z"/>
  <path fill="currentColor" fill-rule="evenodd" d="M9.986 5.99a5.264 5.264 0 0 1 5.373 5.283v.007a5.263 5.263 0 0 1-.945 2.944l-.141.201c-.357.51-.69.986-.953 1.484-.291.553-.462 1.096-.462 1.621a1.255 1.255 0 0 1-1.252 1.22H8.587a1.253 1.253 0 0 1-1.25-1.221c0-.514-.167-1.043-.453-1.584-.268-.506-.614-.992-.984-1.51l-.093-.132a5.264 5.264 0 0 1 4.18-8.313ZM8.827 17.25h2.54c.049-.753.307-1.434.626-2.04.31-.588.702-1.148 1.052-1.647l.138-.197a3.763 3.763 0 0 0 .676-2.102 3.763 3.763 0 1 0-6.83 2.17l.101.142c.36.503.763 1.069 1.08 1.668.315.595.568 1.265.617 2.006Z" clip-rule="evenodd"/>
  <path fill="currentColor" d="M1.25 7.84A.75.75 0 0 1 2 7.09h1.934a.75.75 0 1 1 0 1.5H2a.75.75 0 0 1-.75-.75Zm14.259 0a.75.75 0 0 1 .75-.75h1.934a.75.75 0 0 1 0 1.5H16.26a.75.75 0 0 1-.75-.75Z"/>
</svg>
